X: 41221
T: Trooper, The
R: jig
M: 6/8
K: Gmajor
f|:gfe dBA|BEF G2A|~B3 def|~g3 agf|
gfe dBA|BEF G2A|~B3 dBd|1 e3 e2f:|2 e3 e2 d||
|:e2 e ede|f/g/ag fed|e2 e efg|a3 f/g/af|
e2 e ede|f/g/ag fed|BAB def|1 g3 f/g/af:|2 g3 f/g/af|g3z3||

